X:1
T:Title
%%score { ( 1 3 5 ) | ( 2 4 ) }
L:1/8
Q:1/4=116
M:4/4
K:Ab
V:1 treble nm="Grand Piano"
V:3 treble 
V:5 treble 
V:2 bass 
V:4 bass 
V:1
 [Ec]4 [Ge]3 [DEG] | [DEB]2 [CEA]6 | [A,FA]3 [A,FA] [A,EG]2 [A,DF]2 | [CF]2 [A,CE]6 | %4
w: T.~Edwin~Solly * *||||
 [A,DF]4 [B,EG]3 [G,E] | [A,E]2 [A,EA]2 [Ed]2 [Ec]2 | [EB]4 B2- [FB]2 | B8 | [CAc]4 [Ge]3 [DEG] | %9
w: |||||
 [DEB]2 [CEA]6 | [A,FA]3 [A,FA] [A,EG]2 [A,DF]2 | [DF]2 [A,CE]6 | [A,DF]4 [B,EG]2 [A,EA]2 | %13
w: ||||
 [Ed]2 [Ec]2 [FB]2 F2 | E4 G4 | [CA]8 | e4 f3 e | e2 c6 | c3 A d2 c2 | [Ac]2 [GB]6 | [GB]4 c2 B2 | %21
w: ||||||||
 [A=d]2 [Ge]2 [B,GB]2 [=A,E]2 | [B,EG]4 [A,=DF]4 | [G,E]6 z2 | [Ec]4 [Ge]3 [DEG] | %25
w: ||||
 [CEA]6 [A,_GA]2 | [A,FA]3 [A,FA] [A,EG]2 [A,DF]2 | [DF]2 [A,CE]6 | [A,DF]4 [B,EG]2 [A,EA]2 | %29
w: ||||
 [Ed]2 [Ec]2 [FB]2 F2 | E4 G4 | [CA]8 |] %32
w: |||
V:2
 [A,,A,]4 [E,B,]3 E, | E,2 A,,6 | D,3 D, D,E,F,G, | A,2 A,,6 | D,4 D,3 D, | %5
 C,2 C,2 [B,,G,]2 [A,,A,]2 | [B,,G,]4 F,2 A,2 | [G,E]2 A,2 B,2 z2 | [B,,A,]4 [E,B,]3 E, | %9
 E,2 A,,6 | D,3 D, D,E,F,G, | A,2 A,,6 | D,4 D,2 C,2 | [B,,G,]2 [A,,A,]2 [D,A,]2 [=D,A,_C]2 | %14
 [E,A,C]4 [E,B,D]4 | [A,,A,]8 | [A,CA]4 [A,DA]3 [A,CA] | [A,CA]2 [A,EA]6 | %18
 [A,EA]3 [A,C] [A,FA]2 [A,EA]2 | [E,E]2 [E,E]6 | [E,E]4[K:treble] [A,EA]2 [G,E]2 | %21
 [F,B,]2 [E,B,]2 E,2 C,2 | B,,4 B,,4 | E,2 D,2 C,2 B,,2 | [A,,A,]4 [E,B,]3 E, | A,,6 C,2 | %26
 D,3 D, D,E,F,G, | A,2 A,,6 | D,4 D,2 C,2 | [B,,G,]2 [A,,A,]2 [D,A,]2 [=D,A,_C]2 | %30
 [E,A,C]4 [E,B,D]4 | [A,,A,]8 |] %32
V:3
 x8 | x8 | x8 | x8 | x8 | x8 | z4 =D2 z2 | z4 G4 | x8 | x8 | x8 | x8 | x8 | x8 | x8 | x8 | x8 | %17
 x8 | x8 | x8 | x8 | x8 | x8 | x8 | x8 | x8 | x8 | x8 | x8 | x8 | x8 | x8 |] %32
V:4
 x8 | x8 | x8 | x8 | x8 | x8 | z4 B,,4 | E,8 | x8 | x8 | x8 | x8 | x8 | x8 | x8 | x8 | x8 | x8 | %18
 x8 | x8 | x4[K:treble] x4 | x8 | x8 | x8 | x8 | x8 | x8 | x8 | x8 | x8 | x8 | x8 |] %32
V:5
 x8 | x8 | x8 | x8 | x8 | x8 | x8 | z2 F2 z2 D2 | x8 | x8 | x8 | x8 | x8 | x8 | x8 | x8 | x8 | x8 | %18
 x8 | x8 | x8 | x8 | x8 | x8 | x8 | x8 | x8 | x8 | x8 | x8 | x8 | x8 |] %32

